public/logo.svg

<svg width="407" height="407" fill="none" xmlns="http://www.w3.org/2000/svg"><rect x="2" y="2" width="405" height="405" rx="119" fill="url(#a)"/><g filter="url(#b)" fill="#fff"><path d="M201.118 83.153c-.418.182-3.453 3.337-7.16 6.898-7.701 7.4-9.059 8.599-13.235 11.569-12.74 9.094-26.759 14.228-44.616 16.338-6.788.808-10.26.912-18.353.547-7.336-.338-7.466-.338-8.171.183-1.488 1.12-1.436-.339-1.54 38.642-.131 41.04-.026 46.251 1.227 53.026 1.305 7.114 3.715 15.58 5.595 20.036.496 1.147.877 1.606 2.13 1.893 2.376.521 11.241 1.58 16.097 1.892 7.309.495 21.846.829 31.009.308 9.424-.574 17.927-.86 27.012-2.007 12.896-1.615 22.634-3.022 30.152-4.377 14.829-2.658 39.708-8.886 51.038-12.768 7.44-2.528 17.517-6.645 21.407-8.703 1.567-.808 1.88-1.121 2.219-2.007.34-.912.392-6.305.392-42.212-.026-44.922.052-42.837-1.488-43.984-.679-.521-.836-.521-8.824-.182-4.464.182-9.242.234-10.651.156-6.214-.443-15.038-1.694-20.363-2.918-2.637-.6-10.834-3.153-13.497-4.195-5.744-2.267-13.837-6.905-20.494-11.752-3.315-2.423-10.822-8.975-13.72-12.232-3.603-4.039-4.996-4.662-6.166-4.151z"/><path d="M300.723 153.865v21.641l2.84.634c2.741.834 6.448 2.45 9.45 4.117 5.561 3.101 8.015 7.166 7.388 12.169-.653 5.185-6.788 11.569-17.021 17.718-4.882 2.919-13.81 7.192-18.797 8.99-1.148.417-3.158 1.225-4.464 1.772-3.054 1.329-13.418 4.742-21.955 7.192-12.27 3.543-18.666 5.003-37.698 8.598-13.94 2.658-31.473 4.899-49.226 6.046-16.569 1.07-28.674.812-32.192.406-3.347-.068-7.013-.554-9.232-.71-10.808-.73-19.596-3.162-26.305-5.768-7.284-2.84-11.174-5.628-13.08-9.38-.835-1.616-.887-1.928-.887-4.221 0-2.424.052-2.58 1.122-4.769.862-1.772 1.619-2.814 3.368-4.638 2.532-2.658 5.874-5.524 8.511-7.296l.996-.563-.474-11.782V183.2l-2.089.627c-15.167 5.185-28.82 11.257-41.195 18.292-12.505 7.14-20.964 14.435-24.462 21.106-2.898 5.55-3.054 9.276-.626 14.54.94 2.006 2.845 3.987 6.448 6.696 3.472 2.606 10.286 5.889 15.324 7.401 1.253.364 3.264 1.016 4.49 1.407 2.768.938 13.445 3.153 18.667 3.882 12.113 1.72 14.306 1.928 28.194 2.762 10.886.652 39.447.365 51.429-.495 10.391-.782 32.424-3.049 43.467-4.482 18.536-2.397 46.339-7.791 65.788-12.768 10.991-2.814 17.439-4.586 22.973-6.357 2.663-.834 6.475-2.007 8.485-2.58 3.785-1.094 9.215-2.945 11.487-3.935.731-.312 3.602-1.433 6.396-2.475 12.818-4.769 21.459-8.755 31.719-14.592 8.719-4.977 14.436-9.146 19.449-14.175 4.986-5.003 7.518-9.667 7.936-14.618.209-2.293-.183-4.013-1.514-6.931-1.854-3.961-6.788-7.999-13.601-11.1-6.475-2.971-10.208-4.195-18.536-6.176-10.912-2.579-19.188-3.726-35.635-4.951-3.106-.234-6.684-.413-6.938-.413zM276.962 248.714c-25.924 6.774-55.711 12.403-81.843 15.451-4.308.495-10.286 1.225-13.315 1.564-7.675.938-17.961 1.902-25.192 2.371-3.368.234-7.493.521-9.137.651-1.645.131-5.535.339-8.615.417-3.081.104-6.102-.087-6.676.017H131l2.142 3.084c6.684 9.094 17.909 20.663 27.777 28.584 9.79 7.87 19.319 14.071 30.806 20.038 9.816 5.133 11.069 5.524 14.097 4.378 3.838-1.433 14.75-7.296 21.277-11.439 11.721-7.426 21.668-15.4 30.805-24.65 10.808-10.944 16.421-18.084 23.235-29.418 3.263-5.42 7.283-13.524 6.839-13.758-.104-.079-5.064 1.172-11.016 2.71z"/></g><defs><linearGradient id="a" x1="204.5" y1="2" x2="204.5" y2="407" gradientUnits="userSpaceOnUse"><stop stop-color="#FF8B42"/><stop offset="1" stop-color="#FF6200"/></linearGradient><filter id="b" x="13.1" y="71.1" width="383.8" height="282.6" filterUnits="userSpaceOnUse" color-interpolation-filters="sRGB"><feFlood flood-opacity="0" result="BackgroundImageFix"/><feColorMatrix in="SourceAlpha" values="0 0 0 0 0 0 0 0 0 0 0 0 0 0 0 0 0 0 127 0" result="hardAlpha"/><feOffset dy="8"/><feGaussianBlur stdDeviation="9.95"/><feComposite in2="hardAlpha" operator="out"/><feColorMatrix values="0 0 0 0 0 0 0 0 0 0 0 0 0 0 0 0 0 0 0.37 0"/><feBlend in2="BackgroundImageFix" result="effect1_dropShadow_1886_13"/><feBlend in="SourceGraphic" in2="effect1_dropShadow_1886_13" result="shape"/></filter></defs></svg>

<svg width="407" height="407" viewBox="0 0 407 407" fill="none" xmlns="http://www.w3.org/2000/svg">
<rect x="2" y="2" width="405" height="405" rx="119" fill="url(#paint0_linear_1886_13)"/>
<g filter="url(#filter0_d_1886_13)">
<path d="M201.118 83.1525C200.7 83.3348 197.665 86.4897 193.958 90.0512C186.257 97.4514 184.899 98.65 180.723 101.62C167.983 110.714 153.964 115.848 136.107 117.958C129.319 118.766 125.847 118.87 117.754 118.505C110.418 118.167 110.288 118.167 109.583 118.688C108.095 119.808 108.147 118.349 108.043 157.33C107.912 198.37 108.017 203.581 109.27 210.356C110.575 217.47 112.985 225.936 114.865 230.392C115.361 231.539 115.742 231.998 116.995 232.285C119.371 232.806 128.236 233.865 133.092 234.177C140.401 234.672 154.938 235.006 164.101 234.485C173.525 233.911 182.028 233.625 191.113 232.478C204.009 230.863 213.747 229.456 221.265 228.101C236.094 225.443 260.973 219.215 272.303 215.333C279.743 212.805 289.82 208.688 293.71 206.63C295.277 205.822 295.59 205.509 295.929 204.623C296.269 203.711 296.321 198.318 296.321 162.411C296.295 117.489 296.373 119.574 294.833 118.427C294.154 117.906 293.997 117.906 286.009 118.245C281.545 118.427 276.767 118.479 275.358 118.401C269.144 117.958 260.32 116.707 254.995 115.483C252.358 114.883 244.161 112.33 241.498 111.288C235.754 109.021 227.661 104.383 221.004 99.5359C217.689 97.1126 210.182 90.5613 207.284 87.3042C203.681 83.2654 202.288 82.6416 201.118 83.1525Z" fill="white"/>
<path d="M300.723 153.865C300.723 153.865 300.723 159.089 300.723 164.926V175.506L303.563 176.14C306.304 176.974 310.011 178.59 313.013 180.257C318.574 183.358 321.028 187.423 320.401 192.426C319.748 197.611 313.613 203.995 303.38 210.144C298.498 213.063 289.57 217.336 284.583 219.134C283.435 219.551 281.425 220.359 280.119 220.906C277.065 222.235 266.701 225.648 258.164 228.098C245.894 231.641 239.498 233.101 220.466 236.696C206.526 239.354 188.993 241.595 171.24 242.742C154.671 243.812 142.566 243.554 139.048 243.148C135.701 243.08 132.035 242.594 129.816 242.438C119.008 241.708 110.22 239.276 103.511 236.67C96.227 233.83 92.3372 231.042 90.4314 227.29C89.596 225.674 89.5438 225.362 89.5438 223.069C89.5438 220.645 89.596 220.489 90.6664 218.3C91.5279 216.528 92.285 215.486 94.0341 213.662C96.5664 211.004 99.908 208.138 102.545 206.366L103.541 205.803L103.067 194.021V183.2L100.978 183.827C85.8106 189.012 72.1571 195.084 59.7827 202.119C47.2779 209.259 38.8194 216.554 35.3212 223.225C32.4234 228.775 32.2668 232.501 34.6947 237.765C35.6345 239.771 37.5402 241.752 41.1429 244.461C44.615 247.067 51.4287 250.35 56.4672 251.862C57.7203 252.226 59.7305 252.878 60.9575 253.269C63.7248 254.207 74.4022 256.422 79.6235 257.151C91.7367 258.871 93.9297 259.079 107.818 259.913C118.704 260.565 147.265 260.278 159.247 259.418C169.638 258.636 191.671 256.369 202.714 254.936C221.25 252.539 249.053 247.145 268.502 242.168C279.493 239.354 285.941 237.582 291.475 235.811C294.138 234.977 297.95 233.804 299.96 233.231C303.745 232.137 309.175 230.286 311.447 229.296C312.178 228.984 315.049 227.863 317.843 226.821C330.661 222.052 339.302 218.066 349.562 212.229C358.281 207.252 363.998 203.083 369.011 198.054C373.997 193.051 376.529 188.387 376.947 183.436C377.156 181.143 376.764 179.423 375.433 176.505C373.579 172.544 368.645 168.506 361.832 165.405C355.357 162.434 351.624 161.21 343.296 159.229C332.384 156.65 324.108 155.503 307.661 154.278C304.555 154.044 300.977 153.865 300.723 153.865Z" fill="white"/>
<path d="M276.962 248.714C251.038 255.488 221.251 261.117 195.119 264.165C190.811 264.66 184.833 265.39 181.804 265.729C174.129 266.667 163.843 267.631 156.612 268.1C153.244 268.334 149.119 268.621 147.475 268.751C145.83 268.882 141.94 269.09 138.86 269.168C135.779 269.272 132.758 269.081 132.184 269.185H131L133.142 272.269C139.826 281.363 151.051 292.932 160.919 300.853C170.709 308.723 180.238 314.924 191.725 320.891C201.541 326.024 202.794 326.415 205.822 325.269C209.66 323.836 220.572 317.973 227.099 313.83C238.82 306.404 248.767 298.43 257.904 289.18C268.712 278.236 274.325 271.096 281.139 259.762C284.402 254.342 288.422 246.238 287.978 246.004C287.874 245.925 282.914 247.176 276.962 248.714Z" fill="white"/>
</g>
<defs>
<filter id="filter0_d_1886_13" x="13.1" y="71.1" width="383.8" height="282.6" filterUnits="userSpaceOnUse" color-interpolation-filters="sRGB">
<feFlood flood-opacity="0" result="BackgroundImageFix"/>
<feColorMatrix in="SourceAlpha" type="matrix" values="0 0 0 0 0 0 0 0 0 0 0 0 0 0 0 0 0 0 127 0" result="hardAlpha"/>
<feOffset dy="8"/>
<feGaussianBlur stdDeviation="9.95"/>
<feComposite in2="hardAlpha" operator="out"/>
<feColorMatrix type="matrix" values="0 0 0 0 0 0 0 0 0 0 0 0 0 0 0 0 0 0 0.37 0"/>
<feBlend mode="normal" in2="BackgroundImageFix" result="effect1_dropShadow_1886_13"/>
<feBlend mode="normal" in="SourceGraphic" in2="effect1_dropShadow_1886_13" result="shape"/>
</filter>
<linearGradient id="paint0_linear_1886_13" x1="204.5" y1="2" x2="204.5" y2="407" gradientUnits="userSpaceOnUse">
<stop stop-color="#FF8B42"/>
<stop offset="1" stop-color="#FF6200"/>
</linearGradient>
</defs>
</svg>
